X:1
T:Title
%%score { ( 1 3 4 ) | ( 2 5 ) }
L:1/8
M:4/4
K:Ab
V:1 treble nm="Grand Piano"
V:3 treble 
V:4 treble 
V:2 bass 
V:5 bass 
V:1
 z4 z2[Q:1/4=100] C>E | A2 E2 c2 A>c | e2 e2 e2 c>A | G2 A2 B2 E>F |[M:7/8] [EG]2 [=DF]2 E3 | %5
[M:1/4] C>E |[M:4/4] A2 E2 c2 A>c | e2 c2 d2 [Fc]>[FB] | AE A2 c2 B2 |[M:3/4] [CA]6 |[M:1/4] A>c | %11
[M:4/4] B6 z2 | A6 z2 | E2 E2 z z/ B/ c>B |[M:7/8] E-E-E- E- E3 |[M:1/4] C>E | %16
[M:4/4] A2 E2 c2 A>c | e2 c2 d2 [Fc]>[FB] | AE A2 c2 B2 |[M:7/4] [CA]6 z2 z2 z4 |] %20
V:2
 z4 z2 C,>E, | A,2 E,2 C2[K:treble] [A,C]>[A,EA] | [A,CA]2 [B,DG]2 [CEA]2 [A,EA]>[K:bass][A,CE] | %3
 [E,B,E]2 [E,CE]2 [E,G,E]2 [E,G,]>[E,A,E] |[M:7/8] [B,,B,]2 [B,,A,]2 [E,G,]3 |[M:1/4] C,>E, | %6
[M:4/4] A,2 E,2[K:treble] C2 [A,C]>[A,EA] | [A,CA]2 [=A,E_G]2 [B,DF]2[K:bass] [D,D]>[D,D] | %8
 [E,CE][E,C] [E,CE]2 [E,A,E]2 [E,G,D]2 |[M:3/4] [A,,A,]6 |[M:1/4] z2 |[M:4/4] z4 z2 [E,E]2 | %12
 z C z C A,,2[K:treble] c>A | [B,,B,]2 [B,,B,]2 B,>G, F,>A, |[M:7/8] [E,G,]2 [E,A,]2 [E,B,]3 | %15
[M:1/4] C,>E, |[M:4/4] A,2 E,2[K:treble] C2 [A,C]>[A,EA] | %17
 [A,CA]2 [=A,E_G]2 [B,DF]2[K:bass] [D,D]>[D,D] | [E,CE][E,C] [E,CE]2 [E,A,E]2 [E,G,D]2 | %19
[M:7/4] [A,,A,]6 z2 z2 z4 |] %20
V:3
 x8 | x8 | x8 | x8 |[M:7/8] x7 |[M:1/4] x2 |[M:4/4] x8 | x8 | x8 |[M:3/4] x6 |[M:1/4] x2 | %11
[M:4/4] z2 E2 z z/ d/ G>B | [CE]E[CE]E [CE]2 z2 | G6 z2 |[M:7/8] z2 C2 D3 |[M:1/4] x2 |[M:4/4] x8 | %17
 x8 | x8 |[M:7/4] x14 |] %20
V:4
 x8 | x8 | x8 | x8 |[M:7/8] x7 |[M:1/4] x2 |[M:4/4] x8 | x8 | x8 |[M:3/4] x6 |[M:1/4] x2 | %11
[M:4/4] z4 E2 z2 | x8 | z4 E2 =D2 |[M:7/8] x7 |[M:1/4] x2 |[M:4/4] x8 | x8 | x8 |[M:7/4] x14 |] %20
V:5
 x8 | x6[K:treble] x2 | x15/2[K:bass] x/ | x8 |[M:7/8] x7 |[M:1/4] x2 |[M:4/4] x4[K:treble] x4 | %7
 x6[K:bass] x2 | x8 |[M:3/4] x6 |[M:1/4] x2 |[M:4/4] [E,G,E]2 [E,G,]2 [E,G,]2 B,>D | %12
 A,,2 A,,2 z4[K:treble] | z4 B,,2 B,,2 |[M:7/8] x7 |[M:1/4] x2 |[M:4/4] x4[K:treble] x4 | %17
 x6[K:bass] x2 | x8 |[M:7/4] x14 |] %20

